X: 59
T:Untitled. HA.058
M:6/4
L:1/4
Q:160
S:Henry Atkinson's original MS,Hartburn,N'umberland,1694.
O:England
A:Hartburn,Northumberland
H:1/4
Z:vmp.Chris Partington.Jan.2004
K:F
d|B>AB GAB|c>de ABc|B>AB Ggf|eg2 d2:|!
e|fcA fcA|fcA fcA|gdB gdB|gdB gdB|!
fcA fcA|fcA fcA|gdg ece|dg2 d3|]
